!!!OTL: 1668. Das Martiusvoeglein.
!!!ARE: Europa, Mitteleuropa, Deutschland
!!!SCT: K1668
!!!TXL: @@NLD
!!!YEM: Copyright 1995, estate of Helmut Schaffrath.
**kern	**text
*clefG2	*
*M2/4	*
*k[f#]	*
*G:	*
=1	=1
{8g	Sin-
8a	-te
8b/	Martens
8b/	.
=2	=2
8a	vo-
8a	-geltje,
8g	.
8r}	.
=3	=3
{8g	is
(16g	met
16a)	zyn
8b	rood
*	*^
8b	kapengelt-	(Schnürleibchen)
*	*v	*v
=4	=4
8a	.
8a	.
8g}	-je,
{8b	ge-
=5	=5
4a	-sto-
8g	-ven,
8b/	ge-
=6	=6
4a	-flo-
8g	-gen
8b/	regt
=7	=7
8a	over
8a	den
8g}	Ryn,
{8d	waer
=8	=8
8g	dat-
8a	-ter
8b	vet-
8b	-te
=9	=9
*	*^
8a	verkens	(Ferkel)
*	*v	*v
8a	.
8g	zyn.
8r}	.
=10	=10
{4a	Goed
8g	vrouw,
8r	.
=11	=11
8a	geeft
8a	ons
8g	wat,
8r}	.
=12	=12
{8dd	al-
8dd	-le
8f#	hen-
8f#	-ners
=13	=13
8g	liggen
8g	.
4g}	wat.
==	==
!!!AGN: Kinder -, Ansinge - Lied, Bettel - Reim
!!!ONB: ESAC (Essen Associative Code) Database: KINDER
!!!AMT: simple duple
!!!AIN: vox
!!!EED: Helmut Schaffrath
!!!EEV: 1.0
!!!GTL: XIV. Ansingelieder und Bettelreime der Jugend bei den Umzuegen an den Jahresfesten.
!!Coussemaker Nr. 34.
!!@@COMMENT:"*Was unter Martinsvogel ʒu verſtehen iſt, bleibt fraglich. Daß es die Gans nicht iſt, erhellt aus der Beſchreibung hier."
!!@@END:
!!!URL-scan: https://archive.org/details/DeutschesKinderliedUndKinderspiel/page/363/mode/1up
!!!ENC: Anna Maria Matuszewska
!!!EEV: 2024/02/09
*-	*-
